source/img/icons/search.svg

<svg width="21" height="21" viewBox="0 0 21 21" fill="none" xmlns="http://www.w3.org/2000/svg">
<path d="M16.031 14.617L20.314 18.899L18.899 20.314L14.617 16.031C13.0237 17.3082 11.042 18.0029 9 18C4.032 18 0 13.968 0 9C0 4.032 4.032 0 9 0C13.968 0 18 4.032 18 9C18.0029 11.042 17.3082 13.0237 16.031 14.617ZM14.025 13.875C15.2941 12.5699 16.0029 10.8204 16 9C16 5.132 12.867 2 9 2C5.132 2 2 5.132 2 9C2 12.867 5.132 16 9 16C10.8204 16.0029 12.5699 15.2941 13.875 14.025L14.025 13.875Z" fill="white"/>
</svg>

<svg width="21" height="21" fill="none" xmlns="http://www.w3.org/2000/svg"><path d="M16.031 14.617l4.283 4.282-1.415 1.415-4.282-4.283A8.96 8.96 0 019 18c-4.968 0-9-4.032-9-9s4.032-9 9-9 9 4.032 9 9a8.96 8.96 0 01-1.969 5.617zm-2.006-.742A6.977 6.977 0 0016 9c0-3.868-3.133-7-7-7-3.868 0-7 3.132-7 7 0 3.867 3.132 7 7 7a6.977 6.977 0 004.875-1.975l.15-.15z" fill="#fff"/></svg>
